!!!OTL: Winterrosen
!!!OTL-incipit:Rejt'wal jo rejtar spy gyli, hurra!
!!!ARE: Europa, Mitteleuropa, Deutschland (), Lausitz, sorbisch
!!!YOR: 7, S. 62
!!    1889 gedruckt
!!!SCT: Q2145I
!!!YEM: Copyright 1995, estate of Helmut Schaffrath.
**kern	**text
*ICvox	*
*M6/8	*
*k[f#]	*
*G:	*
=1	=1
!LO:TX:a:t=287	!
{8dL	Rejt'-
8g	-wal
8gJ	jo
4g	rej-
8b	-tar
=2	=2
(8bL	spy
8a)	.
8aJ	gy-
8a	-li,
8r	.
8dd	hur-
=3	=3
4b	-ra!
8r	.
4r}	.
{8b	Py
=4	=4
4dd	tejz
8dd	me
4dd	gy-
8ee	-li
=5	=5
4cc	ze-
8cc	-le-
4cc}	-nej.
{8dd	py
=6	=6
4b	tejz
8b	me
(8bL	gy-
8a)	.
8gJ	-li
=7	=7
4a	ze-
8a	-le-
4a}	-nej.
{8b	hur-
=8	=8
4b	-ra,
8b	hur-
4a	-ra,
8a	hur-
=9	=9
4g	-ra!
8r	.
4r	.
8r}	.
==	==
!!!AGN: Ballade, Verfuehrung, verlorene Ehre
!! Sorbische Fassung der Ballade. Anhaengsel an der ersten Zeile.
!!    Refrain auf "hurra" in der letzten Zeile.
!!!ONB: ESAC (Essen Associative Code) Database: BALLADE
!!!AMT: compound duple
!!!AIN: vox
!!!EED: Helmut Schaffrath
!!!EEV: 1.0
!!!source: Deutsche Volkslieder mit ihren Melodien Balladen. Herausgegeben vom Deutschen Volksliedarchiv. Siebenterer Band. Freiburg/Breisgau 1982.
!!!page: 62
!!!ENC: Anna Maria Matuszewska
!!!EEV: 2025/03/07
*-	*-
